svgs/wp.svg

<svg viewBox="0 0 22 22" xmlns="http://www.w3.org/2000/svg">
<path fill-rule="evenodd" clip-rule="evenodd" d="M11 22C17.0751 22 22 17.0751 22 11C22 4.92487 17.0751 0 11 0C4.92487 0 0 4.92487 0 11C0 17.0751 4.92487 22 11 22ZM1 11C1 5.49 5.49 1 11 1C16.51 1 21 5.49 21 11C21 16.51 16.51 21 11 21C5.49 21 1 16.51 1 11ZM2.79 7.34C2.29 8.46 2.01 9.7 2.01 11C2.01 14.56 4.08 17.63 7.08 19.09L2.79 7.34ZM8.46 19.62C9.27 19.86 10.12 19.99 11 19.99C12.05 19.99 13.05 19.81 13.98 19.47C13.9667 19.45 13.9533 19.4211 13.94 19.3922C13.9333 19.3778 13.9267 19.3633 13.92 19.35L11.16 11.78L8.46 19.62ZM13.27 6.69C13.27 6.69 12.78 6.75 12.24 6.78L15.48 16.46L16.38 13.46C16.4193 13.3308 16.4577 13.2054 16.495 13.0836C16.8188 12.0273 17.06 11.2404 17.06 10.55C17.06 9.44 16.66 8.67 16.32 8.07C16.2808 8.0055 16.2417 7.94183 16.2031 7.87885C15.7983 7.21933 15.44 6.6355 15.44 5.96C15.44 5.13 16.07 4.36 16.95 4.36C16.97 4.36 16.99 4.3625 17.01 4.365C17.03 4.3675 17.05 4.37 17.07 4.37C15.47 2.9 13.34 2.01 11 2.01C7.86 2.01 5.1 3.62 3.48 6.06C3.69 6.07 3.89 6.07 4.06 6.07C5 6.07 6.46 5.96 6.46 5.96C6.95 5.93 7 6.64 6.52 6.7C6.52 6.7 6.03 6.76 5.49 6.78L8.76 16.53L10.73 10.63L9.33 6.79C8.85 6.76 8.39 6.7 8.39 6.7C7.9 6.67 7.96 5.93 8.44 5.95C8.44 5.95 9.93 6.06 10.81 6.06C11.75 6.06 13.21 5.95 13.21 5.95C13.7 5.92 13.75 6.63 13.27 6.69ZM19.6601 13.4149C20.2895 11.1586 20.0132 8.74564 18.89 6.69C18.93 6.97 18.95 7.28 18.95 7.61C18.95 8.52 18.78 9.55 18.27 10.83L15.52 18.77C17.5451 17.5927 19.0306 15.6712 19.6601 13.4149Z" />
</svg>

<svg xmlns="http://www.w3.org/2000/svg" viewBox="0 0 22 22"><path fill-rule="evenodd" d="M11 22c6.075 0 11-4.925 11-11S17.075 0 11 0 0 4.925 0 11s4.925 11 11 11M1 11C1 5.49 5.49 1 11 1s10 4.49 10 10-4.49 10-10 10S1 16.51 1 11m1.79-3.66a8.99 8.99 0 0 0 4.29 11.75zm5.67 12.28c.81.24 1.66.37 2.54.37 1.05 0 2.05-.18 2.98-.52l-.04-.078-.02-.042-2.76-7.57zm4.81-12.93s-.49.06-1.03.09l3.24 9.68.9-3 .115-.376c.324-1.057.565-1.844.565-2.534 0-1.11-.4-1.88-.74-2.48l-.117-.191c-.405-.66-.763-1.243-.763-1.919 0-.83.63-1.6 1.51-1.6q.03 0 .06.005.03.004.06.005A8.94 8.94 0 0 0 11 2.01c-3.14 0-5.9 1.61-7.52 4.05.21.01.41.01.58.01.94 0 2.4-.11 2.4-.11.49-.03.54.68.06.74 0 0-.49.06-1.03.08l3.27 9.75 1.97-5.9-1.4-3.84c-.48-.03-.94-.09-.94-.09-.49-.03-.43-.77.05-.75 0 0 1.49.11 2.37.11.94 0 2.4-.11 2.4-.11.49-.03.54.68.06.74m6.39 6.725a9 9 0 0 0-.77-6.725c.04.28.06.59.06.92 0 .91-.17 1.94-.68 3.22l-2.75 7.94a9 9 0 0 0 4.14-5.355" clip-rule="evenodd"/></svg>
